uploads/logo-color-dark-web.svg

<svg height="8.2887mm" viewBox="0 0 131.965 23.4955" width="46.5543mm" xmlns="http://www.w3.org/2000/svg"><path d="m0 1.1636 10.4605 7.6573 10.4605-7.6573.06 21.0068h-20.921z" fill="#fc6161"/><g fill="#231f20"><path d="m35.8609 1.1636 13.2091 21.0064h-26.4183z"/><path d="m72.9171 1.219-5.8571 10.461 5.8571 10.46h-22.1759l5.8574-10.46-5.8574-10.461z"/><path d="m74.5882 1.1636 10.4611 7.6573 10.46-7.6573.06 21.0068h-20.9215z"/><path d="m108.118 1.1636v21.0064h-10.878v-21.0064z"/><path d="m131.965 1.219-5.8574 10.461 5.8574 10.46h-22.1759l5.8574-10.46-5.8574-10.461z"/><path d="m35.8609 1.1636 13.2091 21.0064h-26.4183z"/></g></svg>

<svg id="Logos" xmlns="http://www.w3.org/2000/svg" width="46.5543mm" height="8.2887mm" viewBox="0 0 131.965 23.4955"><defs><style>.cls-1{fill:#fc6161;}.cls-2{fill:#231f20;}</style></defs><title>logo</title><path class="cls-1" d="M0,1.1636,10.4605,8.8209,20.921,1.1636l.06,21.0068H.06Z"/><path class="cls-2" d="M35.8609,1.1636,49.07,22.17H22.6517Z"/><path class="cls-2" d="M72.9171,1.219,67.06,11.68,72.9171,22.14H50.7412l5.8574-10.46L50.7412,1.219Z"/><path class="cls-2" d="M74.5882,1.1636,85.0493,8.8209l10.46-7.6573.06,21.0068H74.6478Z"/><path class="cls-2" d="M108.118,1.1636V22.17H97.24V1.1636Z"/><path class="cls-2" d="M131.965,1.219,126.1076,11.68,131.965,22.14H109.7891l5.8574-10.46L109.7891,1.219Z"/><path class="cls-2" d="M35.8609,1.1636,49.07,22.17H22.6517Z"/></svg>
